app/static/icons/skype.svg

<svg width="22" height="22" viewBox="0 0 22 22" fill="none" xmlns="http://www.w3.org/2000/svg">
<path fill-rule="evenodd" clip-rule="evenodd" d="M22 11C22 17.0751 17.0751 22 11 22C4.92487 22 0 17.0751 0 11C0 4.92487 4.92487 0 11 0C17.0751 0 22 4.92487 22 11ZM16.6583 11.0608C16.6583 11.4675 16.6141 11.8633 16.5293 12.2455C16.7452 12.674 16.8666 13.1561 16.8666 13.6669C16.8666 15.4337 15.4138 16.8666 13.6215 16.8666C13.0661 16.8666 12.5446 16.7286 12.0872 16.4865C11.7547 16.547 11.4125 16.579 11.0621 16.579C7.97143 16.579 5.46582 14.1089 5.46582 11.0608C5.46582 10.6814 5.50514 10.31 5.57896 9.95231C5.29611 9.47626 5.1333 8.92404 5.1333 8.33373C5.1333 6.56554 6.58617 5.1333 8.37915 5.1333C9.01314 5.1333 9.60505 5.31352 10.1052 5.62431C10.417 5.57127 10.7364 5.54339 11.0621 5.54339C14.1534 5.54339 16.6583 8.0141 16.6583 11.0608Z" fill="#9A9A9A"/>
<path fill-rule="evenodd" clip-rule="evenodd" d="M13.9325 13.6979C13.6738 14.0597 13.2916 14.3453 12.7949 14.548C12.3044 14.7493 11.7166 14.852 11.0468 14.852C10.2431 14.852 9.56907 14.7126 9.04269 14.4372C8.66671 14.2372 8.35696 13.9665 8.12172 13.6306C7.88371 13.2933 7.76367 12.958 7.76367 12.6336C7.76367 12.4323 7.84232 12.2568 7.99685 12.1133C8.15 11.9705 8.34661 11.8991 8.58117 11.8991C8.77295 11.8991 8.93921 11.9556 9.07374 12.0678C9.20274 12.1759 9.31312 12.3357 9.40212 12.5404C9.50146 12.7648 9.60908 12.9539 9.72291 13.1015C9.83329 13.2457 9.99127 13.366 10.1927 13.4606C10.3955 13.5544 10.6694 13.6034 11.0054 13.6034C11.4683 13.6034 11.8477 13.5054 12.1326 13.3137C12.412 13.1266 12.5472 12.9009 12.5472 12.6248C12.5472 12.4078 12.4762 12.2364 12.3313 12.1018C12.1782 11.9617 11.9774 11.8529 11.7339 11.7767C11.4793 11.6992 11.1344 11.6142 10.7074 11.5258C10.1258 11.4033 9.63253 11.2585 9.24069 11.0932C8.83918 10.9252 8.51563 10.692 8.27901 10.4002C8.03893 10.103 7.91682 9.73103 7.91682 9.29374C7.91682 8.87754 8.04445 8.50146 8.29694 8.17774C8.54668 7.85607 8.91231 7.60444 9.38349 7.43374C9.84777 7.2644 10.3997 7.17871 11.0254 7.17871C11.5249 7.17871 11.9643 7.23584 12.3313 7.34873C12.7004 7.46162 13.0108 7.61396 13.255 7.80234C13.5013 7.99276 13.6848 8.19474 13.7994 8.40557C13.9153 8.61843 13.9746 8.82993 13.9746 9.03464C13.9746 9.23186 13.8973 9.4114 13.7449 9.56713C13.5917 9.72491 13.3979 9.80448 13.1702 9.80448C12.9632 9.80448 12.8004 9.75415 12.6887 9.65622C12.5838 9.56441 12.4748 9.4216 12.3541 9.21758C12.2147 8.95643 12.0457 8.75036 11.8519 8.60483C11.6635 8.46337 11.3496 8.39264 10.9171 8.39264C10.5169 8.39264 10.1899 8.47153 9.9478 8.62863C9.71463 8.77893 9.6008 8.95235 9.6008 9.15773C9.6008 9.28286 9.63736 9.38827 9.71325 9.47804C9.79189 9.57462 9.90434 9.65758 10.0465 9.72831C10.1934 9.80108 10.3452 9.85957 10.4969 9.90037C10.6522 9.94322 10.9129 10.0065 11.271 10.0881C11.7242 10.1833 12.1402 10.2914 12.5079 10.4077C12.8811 10.5247 13.2026 10.6689 13.4661 10.8382C13.7338 11.0103 13.9456 11.2306 14.0967 11.4945C14.2478 11.7604 14.3243 12.0868 14.3243 12.467C14.3243 12.9213 14.1919 13.3354 13.9325 13.6979Z" fill="#9A9A9A"/>
</svg>

<svg xmlns="http://www.w3.org/2000/svg" width="22" height="22" fill="#9a9a9a" fill-rule="evenodd"><path d="M22 11c0 6.075-4.925 11-11 11S0 17.075 0 11 4.925 0 11 0s11 4.925 11 11zm-5.342.06a5.46 5.46 0 0 1-.129 1.185 3.15 3.15 0 0 1 .337 1.421c0 1.767-1.453 3.2-3.245 3.2a3.27 3.27 0 0 1-1.534-.38 5.72 5.72 0 0 1-1.025.093c-3.1 0-5.596-2.47-5.596-5.518 0-.38.04-.75.113-1.108-.283-.476-.446-1.028-.446-1.62 0-1.768 1.453-3.2 3.246-3.2a3.26 3.26 0 0 1 1.726.491 5.7 5.7 0 0 1 .957-.081c3.1 0 5.596 2.47 5.596 5.517zm-2.725 2.638c-.26.362-.64.647-1.138.85-.5.2-1.078.304-1.748.304-.804 0-1.478-.14-2.004-.415a2.6 2.6 0 0 1-.921-.807c-.238-.337-.358-.673-.358-.997a.69.69 0 0 1 .233-.52c.153-.143.35-.214.584-.214a.74.74 0 0 1 .493.17 1.24 1.24 0 0 1 .328.473 2.77 2.77 0 0 0 .32.56 1.26 1.26 0 0 0 .47.36c.202.096.477.143.813.143.463 0 .842-.098 1.127-.3.28-.187.415-.413.415-.7 0-.217-.07-.388-.216-.523-.153-.14-.354-.25-.597-.325a11.86 11.86 0 0 0-1.027-.25c-.582-.123-1.075-.267-1.467-.433-.402-.168-.725-.4-.962-.693s-.362-.67-.362-1.106c0-.416.128-.792.38-1.116s.615-.573 1.087-.744c.464-.17 1.016-.255 1.642-.255.5 0 .94.057 1.306.17a2.91 2.91 0 0 1 .924.454c.244.19.43.392.544.603s.175.424.175.63a.74.74 0 0 1-.23.532.77.77 0 0 1-.575.237c-.207 0-.37-.05-.48-.148-.105-.092-.214-.235-.335-.44a1.83 1.83 0 0 0-.502-.613c-.188-.14-.502-.212-.935-.212-.4 0-.727.08-.97.236-.233.15-.347.324-.347.53a.48.48 0 0 0 .112.32.98.98 0 0 0 .333.25 2.46 2.46 0 0 0 .45.172l.774.188 1.237.32a3.94 3.94 0 0 1 .958.43c.263.17.48.392.63.656s.228.592.228.973c0 .454-.132.868-.392 1.23z"/></svg>
